; generated by Slic3r 1.2.9 on 2019-07-03 at 10:32:08

; external perimeters extrusion width = 0.40mm
; perimeters extrusion width = 0.67mm
; infill extrusion width = 0.67mm
; solid infill extrusion width = 0.67mm
; top infill extrusion width = 0.67mm
; support material extrusion width = 0.40mm

M104 S210 ; set temperature
G28 ; home all axes
G1 Z5 F5000 ; lift nozzle

M109 S210 ; wait for temperature to be reached
G21 ; set units to millimeters
G90 ; use absolute coordinates
M82 ; use absolute distances for extrusion
G92 E0 ; reset extrusion distance
M106 S191.25 ; enable fan
G1 Z0.350 F2400.000 ; move to next layer (0)
G1 E-2.00000 F2400.00000 ; retract
G92 E0 ; reset extrusion distance
G1 Z2.350 F2400.000 ; lift Z
G1 X0.000 Y34.631 F2400.000 ; move to first skirt point
G1 Z0.350 F2400.000 ; restore layer Z
G1 E2.00000 F2400.00000 ; unretract
G1 X-34.182 Y34.631 E5.37836 F150.000 ; skirt
G1 X-36.956 Y34.079 E5.65795 ; skirt
G1 X-38.572 Y33.409 E5.83085 ; skirt
G1 X-40.711 Y32.042 E6.08173 ; skirt
G1 X-47.058 Y25.694 E6.96896 ; skirt
G1 X-48.409 Y23.572 E7.21759 ; skirt
G1 X-49.079 Y21.956 E7.39049 ; skirt
G1 X-49.631 Y19.182 E7.67008 ; skirt
G1 X-49.631 Y-19.182 E11.46173 ; skirt
G1 X-49.079 Y-21.956 E11.74132 ; skirt
G1 X-48.409 Y-23.572 E11.91422 ; skirt
G1 X-46.972 Y-25.787 E12.17514 ; skirt
G1 X-40.696 Y-32.056 E13.05192 ; skirt
G1 X-38.572 Y-33.409 E13.30080 ; skirt
G1 X-36.956 Y-34.079 E13.47370 ; skirt
G1 X-34.182 Y-34.631 E13.75329 ; skirt
G1 X34.182 Y-34.631 E20.51001 ; skirt
G1 X36.956 Y-34.079 E20.78960 F150.000 ; skirt
G1 X38.572 Y-33.409 E20.96250 ; skirt
G1 X40.674 Y-32.076 E21.20855 ; skirt
G1 X47.000 Y-25.756 E22.09232 ; skirt
G1 X48.409 Y-23.572 E22.34919 ; skirt
G1 X49.079 Y-21.956 E22.52209 ; skirt
G1 X49.631 Y-19.182 E22.80168 ; skirt
G1 X49.631 Y19.182 E26.59333 ; skirt
G1 X49.079 Y21.956 E26.87292 ; skirt
G1 X48.409 Y23.572 E27.04581 ; skirt
G1 X47.053 Y25.699 E27.29512 ; skirt
G1 X40.674 Y32.076 E28.18661 ; skirt
G1 X38.572 Y33.409 E28.43262 ; skirt
G1 X36.956 Y34.079 E28.60552 ; skirt
G1 X34.182 Y34.631 E28.88511 ; skirt
G1 X0.060 Y34.631 E32.25754 ; skirt
G1 X0.000 Y34.006 F2400.000 ; move to first skirt point
G1 X-34.182 Y34.006 E35.63590 F150.000 ; skirt
G1 X-36.717 Y33.501 E35.89139 ; skirt
G1 X-38.333 Y32.832 E36.06429 ; skirt
G1 X-40.288 Y31.583 E36.29355 ; skirt
G1 X-46.597 Y25.272 E37.17555 ; skirt
G1 X-47.832 Y23.333 E37.40275 ; skirt
G1 X-48.501 Y21.717 E37.57565 ; skirt
G1 X-49.006 Y19.182 E37.83114 ; skirt
G1 X-49.006 Y-19.182 E41.62279 ; skirt
G1 X-48.501 Y-21.717 E41.87828 ; skirt
G1 X-47.832 Y-23.333 E42.05118 ; skirt
G1 X-46.518 Y-25.357 E42.28961 ; skirt
G1 X-40.274 Y-31.596 E43.16206 ; skirt
G1 X-38.333 Y-32.832 E43.38949 ; skirt
G1 X-36.717 Y-33.501 E43.56239 ; skirt
G1 X-34.182 Y-34.006 E43.81788 ; skirt
G1 X34.182 Y-34.006 E50.57461 ; skirt
G1 X36.717 Y-33.501 E50.83009 F150.000 ; skirt
G1 X38.333 Y-32.832 E51.00299 ; skirt
G1 X40.254 Y-31.613 E51.22783 ; skirt
G1 X46.545 Y-25.329 E52.10667 ; skirt
G1 X47.832 Y-23.333 E52.34140 ; skirt
G1 X48.501 Y-21.717 E52.51430 ; skirt
G1 X49.006 Y-19.182 E52.76979 ; skirt
G1 X49.006 Y19.182 E56.56144 ; skirt
G1 X48.501 Y21.717 E56.81693 ; skirt
G1 X47.832 Y23.333 E56.98983 ; skirt
G1 X46.593 Y25.277 E57.21765 ; skirt
G1 X40.254 Y31.614 E58.10354 ; skirt
G1 X38.333 Y32.832 E58.32834 ; skirt
G1 X36.717 Y33.501 E58.50125 ; skirt
G1 X34.182 Y34.006 E58.75673 ; skirt
G1 X0.060 Y34.006 E62.12917 ; skirt
G1 E60.12917 F2400.00000 ; retract
G92 E0 ; reset extrusion distance
G1 Z2.350 F2400.000 ; lift Z
G1 X-12.031 Y10.888 F2400.000 ; move to first perimeter point
G1 Z0.350 F2400.000 ; restore layer Z
G1 E2.00000 F2400.00000 ; unretract
G1 X-11.415 Y9.400 E2.15914 F150.000 ; perimeter
G1 X-5.600 Y3.585 E2.97196 ; perimeter
G1 X-4.112 Y2.969 E3.13109 ; perimeter
G1 X4.112 Y2.969 E3.94391 ; perimeter
G1 X4.650 Y3.192 E4.00149 ; perimeter
G1 X5.600 Y3.585 E4.10305 F150.000 ; perimeter
G1 X11.415 Y9.400 E4.91587 ; perimeter
G1 X12.031 Y10.888 E5.07501 ; perimeter
G1 X12.031 Y19.112 E5.88783 ; perimeter
G1 X11.415 Y20.600 E6.04697 ; perimeter
G1 X5.600 Y26.415 E6.85979 ; perimeter
G1 X4.112 Y27.031 E7.01893 ; perimeter
G1 X-4.112 Y27.031 E7.83175 ; perimeter
G1 X-5.600 Y26.415 E7.99088 ; perimeter
G1 X-11.415 Y20.600 E8.80371 ; perimeter
G1 X-12.031 Y19.112 E8.96284 ; perimeter
G1 X-12.031 Y10.948 E9.76973 ; perimeter
G1 X-11.645 Y10.784 F2400.000 ; move inwards before travel
G1 X-7.877 Y7.228 F2400.000 ; move to first perimeter point
G1 X-8.096 Y6.965 E9.80354 F150.000 ; perimeter
G1 X-5.246 Y4.115 E10.20193 ; perimeter
G1 X-3.988 Y3.594 E10.33650 ; perimeter
G1 X3.988 Y3.594 E11.12475 ; perimeter
G1 X5.246 Y4.115 E11.25931 ; perimeter
G1 X10.885 Y9.754 E12.04757 ; perimeter
G1 X11.406 Y11.012 E12.18213 ; perimeter
G1 X11.406 Y18.988 E12.97038 ; perimeter
G1 X10.885 Y20.246 E13.10495 ; perimeter
G1 X5.246 Y25.885 E13.89320 ; perimeter
G1 X3.988 Y26.406 E14.02777 ; perimeter
G1 X-3.988 Y26.406 E14.81602 ; perimeter
G1 X-5.246 Y25.885 E14.95058 ; perimeter
G1 X-9.018 Y22.112 E15.47793 ; perimeter
G1 X-8.800 Y21.849 E15.51170 ; perimeter
G1 X-3.396 Y25.550 E16.15905 ; perimeter
G1 X3.398 Y25.356 E16.83080 ; perimeter
G1 X8.688 Y21.272 E17.49132 ; perimeter
G1 X9.295 Y19.201 E17.70460 ; perimeter
G1 X10.785 Y15.027 E18.14267 ; perimeter
G1 X8.890 Y8.575 E18.80732 ; perimeter
G1 X3.472 Y4.402 E19.48317 ; perimeter
G1 X-3.476 Y4.211 E20.17011 ; perimeter
G1 X-7.828 Y7.194 E20.69160 ; perimeter
G1 E18.69160 F2400.00000 ; retract
G92 E0 ; reset extrusion distance
G1 Z2.350 F2400.000 ; lift Z
G1 X-11.095 Y16.026 F2400.000 ; move to first perimeter point
G1 Z0.350 F2400.000 ; restore layer Z
G1 E2.00000 F2400.00000 ; unretract
G1 X-9.112 Y21.605 E2.58523 F180.000 ; perimeter
G1 X-9.365 Y21.766 E2.61485 ; perimeter
G1 X-10.885 Y20.246 E2.82731 ; perimeter
G1 X-11.406 Y18.988 E2.96188 ; perimeter
G1 X-11.406 Y16.080 E3.24927 ; perimeter
G1 X-11.154 Y16.036 E3.27455 ; perimeter
G1 X-11.085 Y13.793 F2400.000 ; move to first perimeter point
G1 X-11.406 Y13.746 E3.30664 F180.000 ; perimeter
G1 X-11.406 Y11.012 E3.57686 ; perimeter
G1 X-10.885 Y9.754 E3.71142 ; perimeter
G1 X-9.765 Y8.634 E3.86802 ; perimeter
G1 X-9.511 Y8.794 E3.89764 ; perimeter
G1 X-10.090 Y10.426 E4.06877 ; perimeter
G1 X-11.068 Y13.735 E4.40983 ; perimeter
G1 X-10.485 Y13.970 F2400.000 ; move to first perimeter point
G1 X-9.496 Y10.619 E4.75516 F150.000 ; perimeter
G1 X-8.782 Y8.608 E4.96610 ; perimeter
G1 X-4.449 Y5.632 E5.48558 ; perimeter
G1 X-3.291 Y4.841 E5.62423 F150.000 ; perimeter
G1 X3.252 Y5.021 E6.27108 ; perimeter
G1 X8.347 Y8.946 E6.90677 ; perimeter
G1 X10.128 Y15.008 E7.53125 ; perimeter
G1 X8.700 Y19.008 E7.95104 ; perimeter
G1 X8.146 Y20.901 E8.14604 ; perimeter
G1 X3.177 Y24.737 E8.76640 ; perimeter
G1 X-3.210 Y24.919 E9.39797 ; perimeter
G1 X-8.577 Y21.245 E10.04074 ; perimeter
G1 X-10.793 Y15.010 E10.69471 ; perimeter
G1 X-10.502 Y14.027 E10.79602 ; perimeter
G1 X-10.761 Y13.680 F2400.000 ; move inwards before travel
G1 X-11.290 Y14.079 F2400.000 ; move to first infill point
G1 X-11.414 Y14.933 E10.97687 F120.000 ; infill
G1 X-11.411 Y15.122 E11.01656 ; infill
G1 X-11.304 Y15.745 E11.14900 ; infill
G1 X-11.076 Y17.064 F2400.000 ; move to first infill point
G1 X-10.919 Y17.973 E11.24024 F120.000 ; infill
G1 X-10.919 Y17.973 F2400.000 ; move to first infill point
G1 X-10.766 Y18.860 E11.42887 F120.000 ; infill
G1 X-10.367 Y19.899 E11.66211 ; infill
G1 X-10.039 Y20.418 E11.79067 ; infill
G1 X-7.565 Y23.096 F2400.000 ; move to first infill point
G1 X-6.136 Y24.283 E11.97421 F120.000 ; infill
G1 X-6.136 Y24.283 F2400.000 ; move to first infill point
G1 X-4.875 Y25.330 E12.31783 F120.000 ; infill
G1 X-3.881 Y25.869 E12.55473 ; infill
G1 X-3.632 Y25.946 E12.60929 ; infill
G1 X-3.643 Y25.981 F2400.000 ; move to first infill point
G1 X3.010 Y25.887 E13.26690 F120.000 ; infill
G1 X3.010 Y25.887 F2400.000 ; move to first infill point
G1 X3.515 Y25.879 E13.37270 F120.000 ; infill
G1 X3.655 Y25.855 E13.40250 ; infill
G1 X3.864 Y25.783 E13.44880 ; infill
G1 X4.811 Y25.235 E13.67817 ; infill
G1 X7.844 Y22.567 E14.52457 ; infill
G1 X7.844 Y22.567 F2400.000 ; move to first infill point
G1 X9.018 Y21.534 E14.67919 F120.000 ; infill
G1 X9.621 Y20.535 E14.79444 ; infill
G1 X9.825 Y20.116 F2400.000 ; move to first infill point
G1 X9.487 Y19.778 E14.84986 F150.000 ; infill
G1 X9.733 Y18.989 E14.94563 ; infill
G1 X10.657 Y19.912 E15.09697 ; infill
G1 X10.961 Y19.180 E15.18878 ; infill
G1 X10.006 Y18.225 E15.34518 ; infill
G1 X10.718 Y17.902 E15.43577 ; infill
G1 X11.027 Y18.211 E15.48649 ; infill
G1 X10.679 Y17.486 F2400.000 ; move to first infill point
G1 X10.919 Y16.097 E15.78180 F120.000 ; infill
G1 X10.919 Y16.097 F2400.000 ; move to first infill point
G1 X11.076 Y15.192 E15.87260 F120.000 ; infill
G1 X11.076 Y14.844 F2400.000 ; move to first infill point
G1 X10.913 Y13.717 E15.98512 F120.000 ; infill
G1 X10.665 Y11.988 E16.35106 F120.000 ; infill
G1 X10.454 Y11.654 F2400.000 ; move to first infill point
G1 X10.142 Y11.342 E16.42269 F150.000 ; infill
G1 X10.379 Y10.129 E16.62309 ; infill
G1 X10.696 Y10.446 E16.69572 ; infill
G1 X10.048 Y9.943 F2400.000 ; move to first infill point
G1 X9.228 Y8.561 E16.85449 F120.000 ; infill
G1 X8.571 Y7.911 F2400.000 ; move to first infill point
G1 X6.513 Y6.102 E17.12536 F120.000 ; infill
G1 X6.513 Y6.102 F2400.000 ; move to first infill point
G1 X4.878 Y4.665 E17.58137 F120.000 ; infill
G1 X3.860 Y4.077 E17.82764 ; infill
G1 X3.903 Y4.004 F2400.000 ; move to first infill point
G1 X-1.680 Y3.927 E18.37943 F120.000 ; infill
G1 X-3.632 Y3.921 F2400.000 ; move to first infill point
G1 X-3.906 Y4.006 E18.40777 F120.000 ; infill
G1 X-4.943 Y4.567 E18.52437 ; infill
G1 X-6.634 Y5.972 E18.74167 ; infill
G1 X-8.227 Y7.296 F2400.000 ; move to first infill point
G1 X-9.552 Y8.399 E19.10291 F120.000 ; infill
G1 X-10.081 Y9.415 F2400.000 ; move to first infill point
G1 X-10.470 Y10.032 E19.17500 F120.000 ; infill
G1 X-10.862 Y11.120 E19.28938 ; infill
G1 X-11.076 Y12.595 E19.43663 ; infill
G1 E17.43663 F2400.00000 ; retract
G92 E0 ; reset extrusion distance
G1 Z2.350 F2400.000 ; lift Z
G1 X-17.969 Y13.970 F2400.000 ; move to first perimeter point
G1 Z0.350 F2400.000 ; restore layer Z
G1 E2.00000 F2400.00000 ; unretract
G1 X-17.969 Y19.112 E2.50823 F150.000 ; perimeter
G1 X-18.585 Y20.600 E2.66737 ; perimeter
G1 X-24.400 Y26.415 E3.48019 ; perimeter
G1 X-25.888 Y27.031 E3.63933 ; perimeter
G1 X-34.112 Y27.031 E4.45215 ; perimeter
G1 X-35.600 Y26.415 E4.61128 ; perimeter
G1 X-41.415 Y20.600 E5.42411 ; perimeter
G1 X-42.031 Y19.112 E5.58324 ; perimeter
G1 X-42.031 Y10.888 E6.39607 ; perimeter
G1 X-41.415 Y9.400 E6.55520 ; perimeter
G1 X-35.600 Y3.585 E7.36802 ; perimeter
G1 X-34.112 Y2.969 E7.52716 ; perimeter
G1 X-25.888 Y2.969 E8.33998 ; perimeter
G1 X-25.350 Y3.192 E8.39756 ; perimeter
G1 X-24.400 Y3.585 E8.49912 F150.000 ; perimeter
G1 X-18.585 Y9.400 E9.31194 ; perimeter
G1 X-17.969 Y10.888 E9.47108 ; perimeter
G1 X-17.969 Y13.910 E9.76974 ; perimeter
G1 X-18.315 Y14.170 F2400.000 ; move inwards before travel
G1 E7.76974 F2400.00000 ; retract
G92 E0 ; reset extrusion distance
G1 Z2.350 F2400.000 ; lift Z
G1 X-37.877 Y7.228 F2400.000 ; move to first perimeter point
G1 Z0.350 F2400.000 ; restore layer Z
G1 E2.00000 F2400.00000 ; unretract
G1 X-38.096 Y6.965 E2.03380 F150.000 ; perimeter
G1 X-35.246 Y4.115 E2.43219 ; perimeter
G1 X-33.988 Y3.594 E2.56676 ; perimeter
G1 X-26.012 Y3.594 E3.35501 ; perimeter
G1 X-24.754 Y4.115 E3.48958 ; perimeter
G1 X-19.115 Y9.754 E4.27783 ; perimeter
G1 X-18.594 Y11.012 E4.41239 ; perimeter
G1 X-18.594 Y18.988 E5.20065 ; perimeter
G1 X-19.115 Y20.246 E5.33521 ; perimeter
G1 X-24.754 Y25.885 E6.12347 ; perimeter
G1 X-26.012 Y26.406 E6.25803 ; perimeter
G1 X-33.988 Y26.406 E7.04628 ; perimeter
G1 X-35.246 Y25.885 E7.18085 ; perimeter
G1 X-39.018 Y22.112 E7.70819 ; perimeter
G1 X-38.800 Y21.849 E7.74197 ; perimeter
G1 X-33.396 Y25.550 E8.38932 ; perimeter
G1 X-26.602 Y25.356 E9.06106 ; perimeter
G1 X-21.312 Y21.272 E9.72159 ; perimeter
G1 X-20.705 Y19.201 E9.93486 ; perimeter
G1 X-19.215 Y15.027 E10.37293 ; perimeter
G1 X-21.110 Y8.575 E11.03758 ; perimeter
G1 X-26.528 Y4.402 E11.71343 ; perimeter
G1 X-33.476 Y4.211 E12.40039 ; perimeter
G1 X-37.828 Y7.194 E12.92186 ; perimeter
G1 E10.92186 F2400.00000 ; retract
G92 E0 ; reset extrusion distance
G1 Z2.350 F2400.000 ; lift Z
G1 X-41.095 Y16.026 F2400.000 ; move to first perimeter point
G1 Z0.350 F2400.000 ; restore layer Z
G1 E2.00000 F2400.00000 ; unretract
G1 X-39.112 Y21.605 E2.58523 F180.000 ; perimeter
G1 X-39.365 Y21.766 E2.61485 ; perimeter
G1 X-40.885 Y20.246 E2.82731 ; perimeter
G1 X-41.406 Y18.988 E2.96187 ; perimeter
G1 X-41.406 Y16.080 E3.24927 ; perimeter
G1 X-41.154 Y16.036 E3.27455 ; perimeter
G1 X-41.085 Y13.793 F2400.000 ; move to first perimeter point
G1 X-41.406 Y13.746 E3.30663 F180.000 ; perimeter
G1 X-41.406 Y11.012 E3.57686 ; perimeter
G1 X-40.885 Y9.754 E3.71142 ; perimeter
G1 X-39.765 Y8.634 E3.86802 ; perimeter
G1 X-39.511 Y8.794 E3.89764 ; perimeter
G1 X-40.090 Y10.426 E4.06876 ; perimeter
G1 X-41.068 Y13.735 E4.40983 ; perimeter
G1 X-40.485 Y13.970 F2400.000 ; move to first perimeter point
G1 X-39.496 Y10.619 E4.75516 F150.000 ; perimeter
G1 X-38.782 Y8.608 E4.96609 ; perimeter
G1 X-34.449 Y5.632 E5.48558 ; perimeter
G1 X-33.291 Y4.841 E5.62422 F150.000 ; perimeter
G1 X-26.748 Y5.021 E6.27108 ; perimeter
G1 X-21.653 Y8.946 E6.90677 ; perimeter
G1 X-19.872 Y15.008 E7.53126 ; perimeter
G1 X-21.300 Y19.008 E7.95104 ; perimeter
G1 X-21.854 Y20.901 E8.14604 ; perimeter
G1 X-26.823 Y24.737 E8.76640 ; perimeter
G1 X-33.210 Y24.919 E9.39796 ; perimeter
G1 X-38.577 Y21.245 E10.04074 ; perimeter
G1 X-40.793 Y15.010 E10.69471 ; perimeter
G1 X-40.502 Y14.027 E10.79602 ; perimeter
G1 X-40.761 Y13.680 F2400.000 ; move inwards before travel
G1 X-41.290 Y14.079 F2400.000 ; move to first infill point
G1 X-41.414 Y14.933 E10.97687 F120.000 ; infill
G1 X-41.411 Y15.122 E11.01655 ; infill
G1 X-41.304 Y15.745 E11.14900 ; infill
G1 X-41.076 Y17.064 F2400.000 ; move to first infill point
G1 X-40.919 Y17.973 E11.24024 F120.000 ; infill
G1 X-40.919 Y17.973 F2400.000 ; move to first infill point
G1 X-40.766 Y18.860 E11.42887 F120.000 ; infill
G1 X-40.367 Y19.899 E11.66210 ; infill
G1 X-40.039 Y20.418 E11.79066 ; infill
G1 X-37.565 Y23.096 F2400.000 ; move to first infill point
G1 X-36.137 Y24.283 E11.97420 F120.000 ; infill
G1 X-36.137 Y24.283 F2400.000 ; move to first infill point
G1 X-34.875 Y25.330 E12.31784 F120.000 ; infill
G1 X-33.881 Y25.869 E12.55474 ; infill
G1 X-33.632 Y25.946 E12.60931 ; infill
G1 X-33.643 Y25.981 F2400.000 ; move to first infill point
G1 X-26.990 Y25.887 E13.26691 F120.000 ; infill
G1 X-26.990 Y25.887 F2400.000 ; move to first infill point
G1 X-26.485 Y25.879 E13.37272 F120.000 ; infill
G1 X-26.345 Y25.855 E13.40251 ; infill
G1 X-26.136 Y25.783 E13.44883 ; infill
G1 X-25.189 Y25.235 E13.67819 ; infill
G1 X-22.156 Y22.567 E14.52459 ; infill
G1 X-22.156 Y22.567 F2400.000 ; move to first infill point
G1 X-20.982 Y21.534 E14.67921 F120.000 ; infill
G1 X-20.379 Y20.535 E14.79447 ; infill
G1 X-20.175 Y20.116 F2400.000 ; move to first infill point
G1 X-20.513 Y19.778 E14.84989 F150.000 ; infill
G1 X-20.267 Y18.989 E14.94565 ; infill
G1 X-19.343 Y19.912 E15.09697 ; infill
G1 X-19.039 Y19.180 E15.18878 ; infill
G1 X-19.994 Y18.225 E15.34516 ; infill
G1 X-19.282 Y17.902 E15.43574 ; infill
G1 X-18.973 Y18.211 E15.48647 ; infill
G1 X-19.321 Y17.486 F2400.000 ; move to first infill point
G1 X-19.081 Y16.097 E15.78177 F120.000 ; infill
G1 X-19.081 Y16.097 F2400.000 ; move to first infill point
G1 X-18.924 Y15.192 E15.87257 F120.000 ; infill
G1 X-18.924 Y14.844 F2400.000 ; move to first infill point
G1 X-19.087 Y13.717 E15.98509 F120.000 ; infill
G1 X-19.087 Y13.717 F2400.000 ; move to first infill point
G1 X-19.335 Y11.989 E16.35103 F120.000 ; infill
G1 X-19.546 Y11.654 F2400.000 ; move to first infill point
